packages/icons/src/svg/scheduler.svg

<svg xmlns="http://www.w3.org/2000/svg" viewBox="0 0 16 16">
  <g>
    <path d="M13.8273,13.4858 L13.4823,13.8308 C13.3393,13.9738 13.1083,13.9738 12.9653,13.8308 L10.5653,11.4328 C10.4973,11.3638 10.4583,11.2708 10.4583,11.1738 L10.4583,7.7798 C10.4583,7.5778 10.6223,7.4138 10.8243,7.4138 L11.3123,7.4138 C11.5143,7.4138 11.6783,7.5778 11.6783,7.7798 L11.6783,10.6668 C11.6783,10.7638 11.7163,10.8568 11.7853,10.9248 L13.8273,12.9688 C13.9703,13.1108 13.9703,13.3428 13.8273,13.4858 M11.0683,6.1948 C8.3743,6.1948 6.1913,8.3788 6.1913,11.0718 C6.1913,13.7648 8.3743,15.9488 11.0683,15.9488 C13.7613,15.9488 15.9453,13.7648 15.9453,11.0718 C15.9453,8.3788 13.7613,6.1948 11.0683,6.1948"/>
    <path d="M5.455 12.8126C5.571 13.1866 5.724 13.5446 5.908 13.8826L.561 13.8826C.251 13.8826 0 13.6316 0 13.3216L0 3.9396 12.761 3.9396 12.761 5.4456C12.405 5.3386 12.036 5.2626 11.656 5.2246L11.656 5.0456 9.423 5.0456 9.423 5.4326C9.23 5.4896 9.04 5.5546 8.854 5.6306L8.854 5.0456 6.622 5.0456 6.622 7.2396C6.411 7.4836 6.222 7.7466 6.053 8.0236L6.053 7.8416 3.821 7.8416 3.821 10.0556 5.285 10.0556C5.254 10.2346 5.23 10.4146 5.215 10.5986L3.821 10.5986 3.821 12.8126 5.455 12.8126zM1.02 7.2606L3.252 7.2606 3.252 5.0466 1.02 5.0466 1.02 7.2606zM1.02 10.0556L3.252 10.0556 3.252 7.8416 1.02 7.8416 1.02 10.0556zM1.02 12.8126L3.252 12.8126 3.252 10.5986 1.02 10.5986 1.02 12.8126zM3.821 7.2596L6.053 7.2596 6.053 5.0456 3.821 5.0456 3.821 7.2596zM12.7609 2.2572C12.7609 1.9472 12.5099 1.6962 12.1999 1.6962L9.9919 1.6962 9.9919.0002 8.9039.0002 8.9039 1.6962 3.8579 1.6962 3.8579.0002 2.7699.0002 2.7699 1.6962.5609 1.6962C.2509 1.6962-.0001 1.9472-.0001 2.2572L-.0001 3.1702 12.7609 3.1702 12.7609 2.2572z"/>
  </g>
</svg>

<svg xmlns="http://www.w3.org/2000/svg" viewBox="0 0 16 16">
	<path d="M13.827 13.486l-.345.345a.365.365 0 0 1-.517 0l-2.4-2.398a.37.37 0 0 1-.107-.26V7.78c0-.202.164-.366.366-.366h.488c.202 0 .366.164.366.366v2.887c0 .097.038.19.107.258l2.042 2.044a.365.365 0 0 1 0 .517m-2.759-7.291a4.877 4.877 0 1 0 0 9.754 4.877 4.877 0 0 0 0-9.754"/>
	<path d="M5.455 12.813c.116.374.269.732.453 1.07H.561A.56.56 0 0 1 0 13.322V3.94h12.761v1.506a5.863 5.863 0 0 0-1.105-.221v-.18H9.423v.388a5.98 5.98 0 0 0-.569.198v-.585H6.622V7.24a5.87 5.87 0 0 0-.569.784v-.182H3.821v2.214h1.464a6.056 6.056 0 0 0-.07.543H3.821v2.214h1.634zM1.02 7.26h2.232V5.047H1.02V7.26zm0 2.795h2.232V7.842H1.02v2.214zm0 2.757h2.232v-2.214H1.02v2.214zM3.821 7.26h2.232V5.046H3.821V7.26zm8.94-5.003a.56.56 0 0 0-.561-.56H9.992V0H8.904v1.696H3.858V0H2.77v1.696H.56a.56.56 0 0 0-.56.561v.913h12.76v-.913z"/>
</svg>
